!!!OTL: Kein groesser Leiden als Scheiden.
!!!ARE: Europa, Mitteleuropa, Deutschland
!!!SCT: A0266
!!!TXL: @@GMH
!!!YEM: Copyright 1995, estate of Helmut Schaffrath.
**kern	**text
*M4/2	*
*met(c)	*
*k[b-]	*
*g:aeo	*
=1	=1
!LO:TX:a:t=aeol. tr. (moll.)	!
{2r	.
2g	Es
2g	iſt
2g	auf
=2	=2
2f#	erd
2b-/	kein
2a	ſchwe-
2g	-rer
=3	=3
2f#	leidn,
4r}	.
{4f#	als
(4f#	wenn
4d)	.
4e	ſich
4f#X	ʒwei
=4	=4
2g	herʒ-
2g	-lieb
2e	müſ-
2f#	-ſen
=5	=5
1g	ſcheidn.
2r}	.
{(4a	Ja
4b-/)	.
=6	=6
2cc	bit-
2b-	-ter
2a	tod,
2cc	mit
=7	=7
2fn	dei-
2a	-ner
2b-/}	noth,
{2b-/	vnd
=8	=8
2a	gan-
2g	-ʒem
2f#	rath:
4r}	.
{4f#	dir
=9	=9
(4f#	kan
4d)	.
(4e	ich
4f#)	.
2g	nichts
2g	ver-
=10	=10
(2e	-glei-
2f#)	.
1g}	-chen.
==	==
!!!GTL: Abschieds- und Wanderlieder
!!!AGN: Romanze, Ballade, Lied
!! Hainhofers Lautenbuch I Hs. von 1603.
!!!ONB: ESAC (Essen Associative Code) Database: ALTDEU
!!!AMT: simple quadruple
!!!AIN: vox
!!!EED: Helmut Schaffrath
!!!EEV: 1.0
!!!AMD: Aeolian
!!!URL-scan: https://rosdok.uni-rostock.de/mcrviewer/recordIdentifier/rosdok_ppn738218359/iview2/phys_0415.iview2?x=-495.6391625615763&y=2458.1921182337683&scale=0.4629418472063854&rotation=0&layout=singlePageLayout&logicalDiv=log_0011
!!!ENC: Anna Maria Matuszewska
!!!EEV: 2024/11/03
*-	*-
